Adwaita++/actions/16/encode.svg

<svg fill="none" height="16" viewBox="0 0 16 16" width="16" xmlns="http://www.w3.org/2000/svg" xmlns:xlink="http://www.w3.org/1999/xlink">
  <defs>
    <clipPath id="clip0">
      <path d="m0 0h16v16h-16z"/>
    </clipPath>
  </defs>
  <g clip-path="url(#clip0)" fill="#444">
    <path d="m3 4.8779h9.5v-2h-10.5c-1.104569 0-2 .89543-2 2v4.5c0 .27614.223858.5.5.5h1c.27614 0 .5-.22386.5-.5v-.5-1-2c0-.55229.44772-1 1-1z"/>
    <path clip-rule="evenodd" d="m11.9116 3.8779-3.45153-1.88268c-.24243-.13223-.33176-.43595-.19953-.67838l.47886-.877892c.13223-.242424.43595-.331753.67837-.199522l5.86583 3.199524c.3474.18951.3474.68839 0 .87789l-5.86583 3.19952c-.24242.13224-.54614.04291-.67837-.19952l-.47886-.87789c-.13223-.24243-.0429-.54614.19953-.67838z" fill-rule="evenodd"/>
    <path d="m13.0883 11h-9.49998v2h10.49998c1.1046 0 2-.8954 2-2v-4.5c0-.27614-.2238-.5-.5-.5h-1c-.2761 0-.5.22386-.5.5v.5 1 2c0 .5523-.4477 1-1 1z"/>
    <path clip-rule="evenodd" d="m4.17668 12 3.45157 1.8827c.24243.1322.33176.4359.19952.6784l-.47885.8779c-.13223.2424-.43595.3317-.67837.1995l-5.865792-3.1995c-.347432-.1896-.347432-.6884 0-.8779l5.865792-3.19957c.24242-.13223.54614-.0429.67837.19953l.47885.87789c.13223.24243.04291.54614-.19952.67835z" fill-rule="evenodd"/>
  </g>
</svg>

<svg xmlns="http://www.w3.org/2000/svg" fill="none" width="16" height="16" viewBox="0 0 16 16">
 <g clip-path="url(#clip0)">
  <path fill="#444" d="M3 4.8779H12.5V2.8779H2C0.895431 2.8779 0 3.77333 0 4.8779V9.3779C0 9.65404 0.223858 9.8779 0.5 9.8779H1.5C1.77614 9.8779 2 9.65404 2 9.3779V8.8779V7.8779V5.8779C2 5.32561 2.44772 4.8779 3 4.8779Z"/>
  <path fill="#444" fill-rule="evenodd" d="M11.9116 3.8779L8.46007 1.99522C8.21764 1.86299 8.12831 1.55927 8.26054 1.31684L8.7394 0.438948C8.87163 0.196524 9.17535 0.107195 9.41777 0.239426L15.2836 3.43895C15.631 3.62846 15.631 4.12734 15.2836 4.31684L9.41777 7.51636C9.17535 7.6486 8.87163 7.55927 8.7394 7.31684L8.26054 6.43895C8.12831 6.19652 8.21764 5.89281 8.46007 5.76057L11.9116 3.8779Z" clip-rule="evenodd"/>
  <path fill="#444" d="M13.0883 11H3.58832V13H14.0883C15.1929 13 16.0883 12.1046 16.0883 11V6.5C16.0883 6.22386 15.8645 6 15.5883 6H14.5883C14.3122 6 14.0883 6.22386 14.0883 6.5V7V8V10C14.0883 10.5523 13.6406 11 13.0883 11Z"/>
  <path fill="#444" fill-rule="evenodd" d="M4.17668 12L7.62825 13.8827C7.87068 14.0149 7.96001 14.3186 7.82777 14.5611L7.34892 15.439C7.21669 15.6814 6.91297 15.7707 6.67055 15.6385L0.804758 12.439C0.457326 12.2494 0.457326 11.7506 0.804758 11.5611L6.67055 8.36153C6.91297 8.2293 7.21669 8.31863 7.34892 8.56106L7.82777 9.43895C7.96 9.68138 7.87068 9.98509 7.62825 10.1173L4.17668 12Z" clip-rule="evenodd"/>
 </g>
 <defs>
  <clipPath id="clip0">
   <rect fill="#fff" width="16" height="16"/>
  </clipPath>
 </defs>
</svg>
